X:7982
T:Jigg,A. BF11.09
M:6/8
L:1/8
Q:120
C:Browne A hand
S:MS11,c1800?.,Browne Coll.,Lakes
R:Jig
O:England
A:Lakes
N:See 'Fill The Tankard
Z:vmp.Cherri Graebe.
K:C Major
"Wierd Key"B2cd2g|faf g3|g2d def|g2dd2A|!B2cd2g|fafg3|e2dc2B|A3c3:|!
|:B2AG2A|B2cd2f|e2d def|g2dd2A|!B2AG2A|B2cd2f|e2dc2B|A3c3:||


